!!!!SEGMENT: pl-cz--iii-319--001_just-franciszek-kasper--missa-in-g-kyrie.krn
!!!cenid: 17xx:901
!!!COM: Just, Franciszek Kasper
!!!COM-rismid: pe30098311
!!!CDT: 1717-1760
!!!CNT: Czech
!!!OPR: Missa in G
!!!OTL: Kyrie
!!!OMV: 001
!!!PDT: 1755
!!!AGN: Sacred; Mass
!!!SMS-siglum: PL-CZ
!!!SMS-shelfmark: III-319
!!!SMS-shelfwork: 001-001 M
!!!SMS-variant: Organo PL-CZ III 319:026
!!!SMS-altvar: Organo. PL-CZ III 319:029
!!!NIFC-rismid: 300000544
!!!URL-scan: http://repozytorium.nifc.pl/skany/pl-cz-nut--iii-319
!!!ONB-nifc: UWAGA: części Mszy: Kyrie, Gloria, Patrem, Sanctus, Osanna
!!!AIN: 1 alto 1 bass 2 cor 1 organ 1 soprn 1 tenor 1 viola 2 violn
!!!key: G
**kern	**fba	**kern	**kern	**kern	**kern	**text	**kern	**text	**kern	**text	**kern	**text	**kern	**kern
*part10	*	*part9	*part8	*part7	*part6	*part6	*part5	*part5	*part4	*part4	*part3	*part3	*part2	*part1
*staff10	*	*staff9	*staff8	*staff7	*staff6	*staff6	*staff5	*staff5	*staff4	*staff4	*staff3	*staff3	*staff2	*staff1
*IGcont	*	*IGacmp	*IGacmp	*IGacmp	*IGcoro	*	*IGcoro	*	*IGcoro	*	*IGcoro	*	*IGacmp	*IGacmp
*ICklav	*	*ICstr	*ICstr	*ICstr	*ICvox	*	*ICvox	*	*ICvox	*	*ICvox	*	*ICbras	*ICbras
*Iorgan	*	*Iviola	*Ivioln	*Ivioln	*Ibass	*	*Itenor	*	*Ialto	*	*Isoprn	*	*Icor	*Icor
*I"Organo	*	*I"Alto Viola	*I"Violino Secundo	*I"Violino Primo	*I"Baſso.	*	*I"Tenore.	*	*I"Alto.	*	*I"Canto.	*	*I"Corno Secundo ex G.	*I"Corno Primo ex G.
*I'org	*	*I'a-vla	*I'vl 2	*I'vl 1	*I'B	*	*I'T	*	*I'A	*	*I'S	*	*I'cor 2 in G	*I'cor 1 in G
*clefF4	*	*clefC3	*clefG2	*clefG2	*clefF4	*	*clefC4	*	*clefC3	*	*clefC1	*	*clefG2	*clefG2
*	*	*	*	*	*	*	*	*	*	*	*	*	*ITrd3c5	*ITrd3c5
*k[f#]	*	*k[f#]	*k[f#]	*k[f#]	*k[f#]	*	*k[f#]	*	*k[f#]	*	*k[f#]	*	*k[f#]	*k[f#]
*G:	*	*G:	*G:	*G:	*G:	*	*G:	*	*G:	*	*G:	*	*G:	*G:
*M4/4	*	*M4/4	*M4/4	*M4/4	*M4/4	*	*M4/4	*	*M4/4	*	*M4/4	*	*M4/4	*M4/4
*met(C.)	*	*met(c)	*met(c)	*met(C.|)	*met(c)	*	*met(c)	*	*met(c)	*	*met(c)	*	*met(c)	*met(C.)
*2\right	*	*	*2\right	*2\right	*2\right	*	*2\right	*	*2\right	*	*2\right	*	*2\right	*2\right
=1	=1	=1	=1	=1	=1	=1	=1	=1	=1	=1	=1	=1	=1	=1
!LO:TX:a:t=Adagio:rj	!	!	!LO:TX:a:t=Adagio	!LO:TX:a:t=Adagio.	!	!	!	!	!	!	!LO:TX:a:t=Adagio:rj	!	!LO:TX:a:t=Adagio	!LO:TX:a:t=Adagio
4.G\	.	1ryy	4.b/	4.gg\	4.G\	Ky-	4.d\	Ky-	4.g\	Ky-	4.b\	Ky-	4.g\	4.b\
8G\	.	.	8b/	8gg\	8G\	-ri-	8d\	-ri-	8g\	-ri-	8b\	-ri-	8g\	8b\
2GG/	.	.	2b/	2gg\	2G\	-e	2d\	-e	2g\	-e	2b\	-e	2g\	2b\
*	*	*	*clefF4	*	*	*	*	*	*	*	*	*	*	*
=2	=2	=2	=2	=2	=2	=2	=2	=2	=2	=2	=2	=2	=2	=2
*	*	*	*	*clefF4	*	*	*	*	*	*	*	*	*	*
!LO:TX:a:t=3	!	!	!LO:TX:t=P:problem=fragment poza skalą instrumentu - klucz transponujący lub inny instrument (violone?)	!LO:TX:t=P:problem=fragment poza skalą instrumentu - klucz transponujący lub inny instrument (violone?)	!	!	!	!	!	!	!	!	!LO:TX:a:t=3.	!LO:TX:a:t=3
0r	.	1ryy	8GG/L	8GG/L	0r	.	2r	.	0r	.	8gg\	Ky-	0r	0r
.	.	.	8GG/	8GG/	.	.	.	.	.	.	8dd\	-ri-	.	.
.	.	.	8GG/	8GG/	.	.	.	.	.	.	4ee\	-e	.	.
.	.	.	8GG/J	8GG/J	.	.	.	.	.	.	.	.	.	.
*	*	*	*	*	*	*	*	*	*	*	*	*ij	*	*
.	.	.	8GG/L	8GG/L	.	.	8g\	Ky-	.	.	8dd\	Ky-	.	.
.	.	.	8GG/	8GG/	.	.	8d\	-ri-	.	.	8b\	-ri-	.	.
.	.	.	8GG/	8GG/	.	.	4e\	-e	.	.	4cc\	-e	.	.
.	.	.	8GG/J	8GG/J	.	.	.	.	.	.	.	.	.	.
=3	=3	=3	=3	=3	=3	=3	=3	=3	=3	=3	=3	=3	=3	=3
*	*	*	*	*	*	*	*	*ij	*	*	*	*	*	*
.	.	1ryy	8GG/L	8GG/L	.	.	8d\	Ky-	.	.	8gg\	Ky-	.	.
.	.	.	8GG/	8GG/	.	.	8B\	-ri-	.	.	8dd\	-ri-	.	.
.	.	.	8GG/	8GG/	.	.	4c,<\	-e	.	.	4ee\	-e	.	.
.	.	.	8GG/J	8GG/J	.	.	.	.	.	.	.	.	.	.
*	*	*	*	*	*	*	*	*Xij	*	*	*	*Xij	*	*
.	.	.	8GG/L	8GG/L	.	.	8B\L	E-	.	.	8dd\L	e-	.	.
.	.	.	8GG/	8GG/	.	.	16B\L	.	.	.	16dd\L	.	.	.
.	.	.	.	.	.	.	16G\JJ	.	.	.	16b\JJ	.	.	.
.	.	.	8GG/	8GG/	.	.	8A/L	-lei-	.	.	8cc\L	-ley-	.	.
.	.	.	8GG/J	8GG/J	.	.	16A/L	.	.	.	16cc\L	.	.	.
.	.	.	.	.	.	.	16F#/JJ	.	.	.	16a\JJ	.	.	.
=4	=4	=4	=4	=4	=4	=4	=4	=4	=4	=4	=4	=4	=4	=4
1r	.	1ryy	8GG/L	8GG/L	1r	.	4G,</	-son,	1r	.	4b,<\	-son,	1r	1r
.	.	.	8GG/	8GG/	.	.	.	.	.	.	.	.	.	.
.	.	.	8GG/	8GG/	.	.	4c\	e-	.	.	4ee\	e-	.	.
.	.	.	8GG/J	8GG/J	.	.	.	.	.	.	.	.	.	.
.	.	.	8GG/L	8GG/L	.	.	8B\L	-lei-	.	.	8dd\L	-ley-	.	.
.	.	.	8GG/	8GG/	.	.	16B\L	.	.	.	16dd\L	.	.	.
.	.	.	.	.	.	.	16G\JJ	.	.	.	16b\JJ	.	.	.
.	.	.	8GG/	8GG/	.	.	8A/L	.	.	.	8cc\L	.	.	.
.	.	.	8GG/J	8GG/J	.	.	16A/L	.	.	.	16cc\L	.	.	.
.	.	.	.	.	.	.	16F#/JJ	.	.	.	16a\JJ	.	.	.
=5	=5	=5	=5	=5	=5	=5	=5	=5	=5	=5	=5	=5	=5	=5
2r	.	1ryy	8GG/L	8GG/L	2r	.	8G,</	-son,	2r	.	8b,<\	-son,	2r	2r
*	*	*	*	*	*	*	*	*ij	*	*	*	*	*	*
.	.	.	8AA/	8AA/	.	.	8B\	e-	.	.	8dd\	e-	.	.
.	.	.	8BB/	8BB/	.	.	8A\	-lei-	.	.	8cc\	-ley-	.	.
.	.	.	8C/J	8C/J	.	.	8G/	-son	.	.	8b\	-son	.	.
*	*	*	*clefG2	*clefG2	*	*	*	*Xij	*	*	*	*	*	*
*	*	*	*k[f#f#]	*k[f# f#]	*	*	*	*	*	*	*	*	*	*
4.D/	.	.	4.d/ 4.a 4.ff#	4.d/ 4.a 4.ff#	4.d\	Ky-	4.d\	Ky-	4.a\	Ky-	4.ff#\	Ky-	4.d/	4.a\
8D/	.	.	8d/ 8a 8ff#	8d/ 8a 8ff#	8d\	-ri-	8d\	-ri-	8a\	-ri-	8ff#\	-ri-	8d/	8a\
=6	=6	=6	=6	=6	=6	=6	=6	=6	=6	=6	=6	=6	=6	=6
2D/	.	1ryy	2d/ 2a 2ff#	2d/ 2a 2ff#	2D/	-e	2d\	-e	2a\	-e	2ff#\	-e	2d/	2a\
*	*	*	*	*	*	*	*	*	*	*ij	*	*	*	*
2r	.	.	8d/L	8d/L	2r	.	2r	.	8dd\	Ky-	2r	.	2r	2r
.	.	.	8d/	8d/	.	.	.	.	8a\	-ri-	.	.	.	.
.	.	.	8d/	8d/	.	.	.	.	4b\	-e	.	.	.	.
.	.	.	8d/J	8d/J	.	.	.	.	.	.	.	.	.	.
=7	=7	=7	=7	=7	=7	=7	=7	=7	=7	=7	=7	=7	=7	=7
*	*	*	*	*	*	*ij	*	*	*	*	*	*	*	*
0r	.	1ryy	8d/L	8d/L	8d\	Ky-	0r	.	8a\	Ky-	0r	.	0r	0r
.	.	.	8d/	8d/	8A\	-ri-	.	.	8f#\	-ri-	.	.	.	.
.	.	.	8d/	8d/	4B,<\	-e	.	.	4g\	-e	.	.	.	.
*	*	*	*	*	*	*	*	*	*	*Xij	*	*	*	*
.	.	.	8d/J	8d/J	.	.	.	.	.	.	.	.	.	.
.	.	.	8d/L	8d/L	8A\	Ky-	.	.	8dd\	Ky-	.	.	.	.
.	.	.	8d/	8d/	8F#\	-ri-	.	.	8a\	-ri-	.	.	.	.
.	.	.	8d/	8d/	4G\	-e	.	.	4b\	-e	.	.	.	.
*	*	*	*	*	*	*Xij	*	*	*	*	*	*	*	*
.	.	.	8d/J	8d/J	.	.	.	.	.	.	.	.	.	.
=8	=8	=8	=8	=8	=8	=8	=8	=8	=8	=8	=8	=8	=8	=8
.	.	1ryy	8d/L	8d/L	8F#\L	e-	.	.	8a\L	e-	.	.	.	.
.	.	.	8d/	8d/	16F#\L	.	.	.	16a\L	.	.	.	.	.
.	.	.	.	.	16D\JJ	.	.	.	16f#\JJ	.	.	.	.	.
.	.	.	8d/	8d/	8E/L	-lei-	.	.	8g\L	-lei-	.	.	.	.
.	.	.	8d/J	8d/J	16E/L	.	.	.	16g\L	.	.	.	.	.
.	.	.	.	.	16AA/JJ	.	.	.	16e\JJ	.	.	.	.	.
!	!	!	!LO:LB:g=original	!LO:LB:g=original	!	!	!	!	!	!	!	!	!	!
.	.	.	8d/L	8d/L	4D,</	-son	.	.	4f#,<\	-son	.	.	.	.
.	.	.	8d/	8d/	.	.	.	.	.	.	.	.	.	.
.	.	.	8d/	8d/	4G\	e-	.	.	4b\	e-	.	.	.	.
.	.	.	8d/J	8d/J	.	.	.	.	.	.	.	.	.	.
=9	=9	=9	=9	=9	=9	=9	=9	=9	=9	=9	=9	=9	=9	=9
2r	.	1ryy	8d/L	8d/L	8F#\L	-lei-	1r	.	8a\L	-lei-	1r	.	1r	1r
.	.	.	8d/	8d/	16F#\L	.	.	.	16a\L	.	.	.	.	.
.	.	.	.	.	16D\JJ	.	.	.	16f#\JJ	.	.	.	.	.
.	.	.	8d/	8d/	8E\L	.	.	.	8g\L	.	.	.	.	.
.	.	.	8d/J	8d/J	16E\L	.	.	.	16g\L	.	.	.	.	.
.	.	.	.	.	16AA\JJ	.	.	.	16e\JJ	.	.	.	.	.
!	!	!	!	!	!	!	!	!	!LO:LB:g=original	!	!	!	!	!
8r	.	.	8d/L	8d/L	8D\	-son	.	.	8f#\	-son	.	.	.	.
8D\L	.	.	8d/	8d/	8D\	e-	.	.	8a\	e-	.	.	.	.
8E\	.	.	8d/	8d/	8E\L	-lei-	.	.	8b\	-lei-	.	.	.	.
8F#\J	.	.	8d/J	8d/J	8F#\J	.	.	.	8ccn\	-son	.	.	.	.
=10	=10	=10	=10	=10	=10	=10	=10	=10	=10	=10	=10	=10	=10	=10
!LO:TX:t=P:problem=mixed beam	!	!	!LO:TX:t=P:problem=mixed beam	!LO:TX:t=P:problem=mixed beam	!LO:LB:g=original	!	!LO:LB:g=original	!	!	!	!LO:LB:g=original	!	!	!
8G\L	.	1ryy	8G/L	8G/L	8G,<\	-son,	8r	.	4.b\	Ky-	8r	.	2r	8r
8GG/	.	.	8b\	8dd\	8GG/	e-	8B\	e-	.	.	8dd\	e-	.	8g\L
8AA/	.	.	8cc\	8ee\	8AA/L	-lei-	8c\	-lei-	.	.	8ee\	-lei-	.	8g\
8BB/J	.	.	8dd\J	8ffnX\J	8BB/J	.	8d\	-son	8b\	-ri-	8ffn,<\	-son,	.	8g\J
8C\L	.	.	8g/L	4.ee\	8C,</	-son,	4.c\	Ky-	8b\	-e	4.ee\	Ky-	8r	4g\
8E\	.	.	8g/	.	8E\	e-	.	.	8g\	e-	.	.	8g\L	.
8F#\	.	.	8a/	.	8F#\L	-lei-	.	.	8a\	-lei-	.	.	8g\	4r
8G\J	.	.	8b/J	8ee\	8G\J	.	8c\	-ri-	8b\	-son	8ee\	-ri-	8g\J	.
=11	=11	=11	=11	=11	=11	=11	=11	=11	=11	=11	=11	=11	=11	=11
!LO:LB:g=original	!	!	!	!	!	!	!	!	!	!	!	!	!	!
!LO:TX:t=P:problem=mixed beam	!	!	!	!	!	!	!	!	!	!	!	!	!	!
8A\L	.	1ryy	4.a/	8ee\L	8A,<\	-son,	8c#X,<\	-e,	4.a\	e-	8ee,<\	-e,	4a\	8r
*	*	*	*	*	*	*ij	*	*	*	*	*	*	*	*
8AA/	.	.	.	8ee\	8AA/	e-	8c#\	e-	.	.	8ee\	e-	.	8a\L
8BB/	.	.	.	8ff#X\	8BB/L	-lei-	8d\	-lei-	.	.	8ff#X\	-ley-	4r	8a\
8C#X/J	.	.	8a/	8gg\J	8C#X/J	.	8e,<\	-son,	8a\	-lei-	8gg\	-son	.	8a\J
8D\L	.	.	8a/L	4.ff#\	8D,</	-son,	4.d\	Ky-	8a,<\	-son,	4.ff#\	Ky-	8r	4a\
*	*	*	*	*	*	*	*	*	*	*ij	*	*	*	*
8D\	.	.	8a/	.	8D/	e-	.	.	8b\	e-	.	.	8a\L	.
8E\	.	.	8b/	.	(8E\L	-lei-	.	.	8cc\L	-lei-	.	.	8a\	4r
8F#\J	.	.	8cc/J	8ff#\	8F#\J)	.	8d\	-ri-	8a\J	.	8ff#\	-ri-	8a\J	.
=12	=12	=12	=12	=12	=12	=12	=12	=12	=12	=12	=12	=12	=12	=12
8G\L	.	1ryy	8b\L	8gg\L	8G,<\	-son,	8d\	-e	8b,<\	-son	8gg\	-e	4.b\	4.dd\
*	*	*	*	*	*	*Xij	*	*	*	*Xij	*	*	*	*
8A\	.	.	8cc\	8ee\	8A\	e-	8c\	e-	8cc\	e-	8ee\L	e-	.	.
8B\	.	.	8b\	8dd\	8B\L	-lei-	8d\	-lei-	8b\L	-lei-	8dd\	.	.	.
8c\J	.	.	8a\J	8cc\J	8c\J	.	8e\	-son	8a\J	.	8cc\J	.	8a\	8cc\
!	!	!	!	!LO:TUP:a:problem=klamra łukowa	!	!	!	!	!	!	!	!	!	!LO:TUP:a:problem=klamra łukowa
4d\	.	.	4g/	12b/L	4d\	.	4.d\	Ky-	4g\	.	8b\L	-lei-	4g\	12b\L
.	.	.	.	12a/	.	.	.	.	.	.	.	.	.	12a\
.	.	.	.	.	.	.	.	.	.	.	16a\L	.	.	.
.	.	.	.	12g/J	.	.	.	.	.	.	.	.	.	12g\J
.	.	.	.	.	.	.	.	.	.	.	16g\JJ	.	.	.
!	!	!	!LO:TX:a:t=f&colon;	!	!	!	!	!	!	!	!	!	!	!
4D/	.	.	4f#/	4a/	4D/	.	.	.	4f#\	-son	4aT\	.	4d/	4a\
.	.	.	.	.	.	.	8d\	-ri-	.	.	.	.	.	.
=13	=13	=13	=13	=13	=13	=13	=13	=13	=13	=13	=13	=13	=13	=13
8G\L	.	1ryy	8b\L	8gg\L	8G,<\	-son,	4d\	-e	8b\	Ky-	8g/	-son	4.b\	4.dd\
8A\	.	.	8cc\	8ee\	8A\	e-	.	.	8cc\	-ri-	8ee\L	e-	.	.
8B\	.	.	8b\	8dd\	8B\L	-lei-	8r	.	8b\L	-e-	8dd\	.	.	.
8c\J	.	.	8a\J	8cc\J	8c\J	.	8e\	e-	8a\J	.	8cc\J	.	8a\	8cc\
!	!	!	!	!LO:TUP:a:problem=klamra łukowa	!	!	!	!	!	!	!	!	!	!LO:TUP:a:problem=klamra łukowa
4d\	.	.	4g/	12b/L	4d\	.	4.d\	-lei-	4g\	-lei-	8b\L	-lei-	4g\	12b\L
.	.	.	.	12a/	.	.	.	.	.	.	.	.	.	12a\
.	.	.	.	.	.	.	.	.	.	.	16a\L	.	.	.
.	.	.	.	12g/J	.	.	.	.	.	.	.	.	.	12g\J
.	.	.	.	.	.	.	.	.	.	.	16g\JJ	.	.	.
4D/	.	.	4f#/	4a/	4D/	.	.	.	4f#\	.	4aT\	.	4d/	4a\
.	.	.	.	.	.	.	8d\	.	.	.	.	.	.	.
=14	=14	=14	=14	=14	=14	=14	=14	=14	=14	=14	=14	=14	=14	=14
!LO:TX:b:t=tasto	!	!	!	!	!	!	!	!	!	!	!	!	!	!
1GGT	.	1ryy	4g/	4g/	4G,<\	-son,	4d,<\	-son,	4g,<\	-son,	4g,</	-son,	4B/	4g\
.	.	.	4cc\	4ee\	4G\	e-	4c\	e-	4g\	e-	4ee\	e-	4r	4r
.	.	.	8b/L	8dd\L	2G\	-lei-	8B\L	-lei-	2g\	-lei-	8dd\L	-ley-	2r	2r
.	.	.	16b/L	16dd\L	.	.	16B\L	.	.	.	16dd\L	.	.	.
.	.	.	16g/JJ	16b\JJ	.	.	16G\JJ	.	.	.	16b\JJ	.	.	.
.	.	.	8a/L	8cc\L	.	.	8A/L	.	.	.	8cc\L	.	.	.
.	.	.	16a/L	16cc\L	.	.	16A/L	.	.	.	16cc\L	.	.	.
.	.	.	16f#/JJ	16a\JJ	.	.	16F#/JJ	.	.	.	16a\JJ	.	.	.
=15	=15	=15	=15	=15	=15	=15	=15	=15	=15	=15	=15	=15	=15	=15
!	!	!	!	!	!	!	!	!	!LO:LB:g=original	!	!	!	!	!
1GG	.	1ryy	4g/	4b\	4G,<\	-son,	4G,</	-son,	4g,<\	-son,	4b\	.	4g\	4g\
*	*	*	*	*	*	*	*	*	*	*ij	*	*	*	*
.	.	.	4ee\	4cc\	4G\	e-	4e\	e-	4g\	e-	4cc\	-son	4cc\	4ee\
!	!	!	!	!	!	!	!LO:LB:g=original	!	!	!	!	!	!	!
.	.	.	8dd\L	8b/L	2G\	-lei-	8d\L	-lei-	2g\	-lei-	8b\L	e-	8b\L	8dd\L
.	.	.	16dd\L	16b/L	.	.	16d\L	.	.	.	16b\L	.	16b\L	16dd\L
.	.	.	16b\JJ	16g/JJ	.	.	16B\JJ	.	.	.	16g\JJ	.	16g\JJ	16b\JJ
!	!	!	!	!	!	!	!	!	!	!	!	!	!	!LO:LB:g=original
.	.	.	8cc\L	8a/L	.	.	8c\L	.	.	.	8a\L	-ley-	8a\L	8cc\L
.	.	.	16cc\L	16a/L	.	.	16c\L	.	.	.	16a\L	.	16a\L	16cc\L
.	.	.	16a\JJ	16f#/JJ	.	.	16A\JJ	.	.	.	16f#\JJ	.	16f#\JJ	16a\JJ
=16	=16	=16	=16	=16	=16	=16	=16	=16	=16	=16	=16	=16	=16	=16
!	!	!	!	!	!	!	!	!	!	!	!	!	!LO:LB:g=original	!
1GG	.	1ryy	4b\	4g/	4G\	-son	4B,<\	-son	4g,<\	-son	4g/	-son	4g\	4b\
*	*	*	*	*	*	*	*	*ij	*	*	*	*	*	*
.	.	.	4cc\	4ee\	4G\	e-	4c\	e-	4g\	e-	4ee\	e-	4g\	4g\
.	.	.	8b/L	8dd\L	2G\	-lei-	8B\L	-lei-	2g\	-lei-	8dd\L	-ley-	2g\	2g\
.	.	.	16b/L	16dd\L	.	.	16B\L	.	.	.	16dd\L	.	.	.
.	.	.	16g/JJ	16b\JJ	.	.	16G\JJ	.	.	.	16b\JJ	.	.	.
.	.	.	8a/L	8cc\L	.	.	8A/L	.	.	.	8cc\L	.	.	.
.	.	.	16a/L	16cc\L	.	.	16A/L	.	.	.	16cc\L	.	.	.
.	.	.	16f#/JJ	16a\JJ	.	.	16F#/JJ	.	.	.	16a\JJ	.	.	.
=17	=17	=17	=17	=17	=17	=17	=17	=17	=17	=17	=17	=17	=17	=17
!	!	!	!LO:LB:g=original	!LO:TX:t=P:problem=mixed beam	!LO:LB:g=original	!	!	!	!	!	!	!	!	!
8GG/L	.	1ryy	8g/L	8b/L	8G,<\	-son,	8G,</	-son	8g,<\	-son,	8b\	-son	8g\L	8g\L
*	*	*	*	*	*	*	*	*	*	*Xij	*	*	*	*
8BB/	.	.	8b/	8gg\J	8B\	e-	8B\	e-	8g\	e-	8gg\	e-	8g\	8b\
!	!	!	!	!LO:TX:t=P:problem=mixed beam	!	!	!	!	!	!	!	!	!	!
8D/	.	.	8a/	8d/L	8d\L	-lei-	8A\L	-lei-	8f#\L	-lei-	(8a\	-ley-	8d\	8a\
8DD/J	.	.	8cc/J	8ff#\J	8D\J	.	8c\J	.	8a\J	.	8ff#\)	.	8d\J	8dd\J
!	!	!	!	!LO:TX:t=P:problem=mixed beam	!	!	!	!	!	!	!	!	!	!
8GG/L	.	.	8b/L	8gg\L	8G,<\	-son	8B,<\	-son	8b\	-son	8gg\	-son	16g\LL	8b\L
*	*	*	*	*	*	*	*	*Xij	*	*	*	*	*	*
.	.	.	.	.	.	.	.	.	.	.	.	.	16d\	.
8BB/	.	.	8g/	8b/J	8GG/	e-	8B\	e-	8g\	e-	8b\	e-	16B\	8b\
.	.	.	.	.	.	.	.	.	.	.	.	.	16G\JJ	.
!	!	!	!	!LO:TX:t=P:problem=mixed beam	!	!	!	!	!	!	!	!	!	!
8D/	.	.	8a/	8d/L	8D/L	-lei-	8A\L	-lei-	8f#\L	-lei-	(8a\	-ley-	8d/L	8a\
8DD/J	.	.	8dd/J	8ff#\J	8DD/J	.	8d\J	.	8a\J	.	8ff#\)	.	8d/J	8dd\J
=18	=18	=18	=18	=18	=18	=18	=18	=18	=18	=18	=18	=18	=18	=18
!	!	!	!	!LO:LB:g=original	!	!	!	!	!	!	!	!	!	!
1GG	.	1ryy	1b	1gg	1GG	-son.	1d	-son.	1b	-son	1gg	-son	1G	1b
=19||	=19||	=19||	=19	=19	=19	=19	=19	=19	=19	=19	=19	=19	=19	=19
*M12/8	*	*	*M12/8	*M12/8	*M12/8	*	*M12/8	*	*M12/8	*	*M12/8	*	*M12/8	*M12/8
!LO:LB:g=original	!	!	!	!	!	!	!	!	!	!	!	!	!	!
!LO:TX:b:t=Allegro:rj	!	!	!	!LO:TX:a:t=Andante	!	!	!LO:N:vis=2	!	!	!	!	!	!	!
4.G\	.	1.ryy	4r	8g/L	4G\	Ky-	2.r	.	4r	.	(8g/L	Ky-	4B/	4g\
.	.	.	.	8d/	.	.	.	.	.	.	8d/J)	.	.	.
.	.	.	8r	8a/J	8G\	-ri-	.	.	8r	.	8a\	-ri	8d/	8a\
!	!	!	!	!	!	!	!	!	!	!	!LO:TX:t=P:problem=mixed beam	!	!	!
4.G\	.	.	8g/L	8b/L	4G,<\	-e	.	.	(8g\L	Ky-	(8b\L	e-	4g\	4b\
!	!	!	!LO:SIC:v:s=8d/	!	!	!	!	!	!	!	!	!	!	!
.	.	.	8e/	8d/	.	.	.	.	8d\J)	.	8d/J)	.	.	.
.	.	.	8a/J	8cc/J	8G\	E-	.	.	8a\	-ri-	8cc\	.	8a\	8cc\
8G\L	.	.	8b/L	4.dd\	4.G\	-lei-	(8G/L	Ky-	4.b\	-e	4.dd\	-ley-	4.b\	4.dd\
8D\	.	.	8g/	.	.	.	8D/J)	.	.	.	.	.	.	.
8BB\J	.	.	8a/J	.	.	.	8A/	-ri-	.	.	.	.	.	.
!	!	!	!	!	!	!	!	!	!	!	!LO:N:vis=8	!	!LO:N:vis=8	!LO:N:vis=8
4GG/	.	.	4b\	4dd\	4G,<\	-son,	4B,<\	-e	4b\	e-	4dd,<\	-son,	4b\	4dd\
8r	.	.	8cc\	8gg\	8G\	e-	8c\	e-	8g\	.	8gg\	e-	8cc\	8ee\
=20	=20	=20	=20	=20	=20	=20	=20	=20	=20	=20	=20	=20	=20	=20
8G\L	.	1.ryy	8b/L	8dd\L	4.G\	-lei-	8B\L	-lei-	4.b\	-lei-	8dd\L	-lei-	4.b\	4.dd\
8D\	.	.	8g/	8b\	.	.	8G\	.	.	.	8b\	.	.	.
8BB\J	.	.	8a/J	8cc\J	.	.	8A\J	.	.	.	8cc\J	.	.	.
4GG/	.	.	4b\	4dd\	4G\	.	4B,<\	-son,	4b,<\	-son,	4dd\	-son	8b\	4dd\
.	.	.	.	.	.	.	.	.	.	.	.	.	4cc\	.
*	*	*	*	*	*	*	*	*ij	*	*ij	*	*	*	*
8r	.	.	8cc\	8gg\	8G,<\	-son,	8c\	e-	8b\	e-	8gg\	e-	.	8ee\
4.G\	.	.	8b\L	8dd\L	4.G\	e-	8B\L	-lei-	4.b\	-lei-	8dd\L	-lei-	8b\L	8dd\L
.	.	.	8g\	8b\	.	.	8G\	.	.	.	8b\	.	8g\	8b\
.	.	.	8a\J	8cc\J	.	.	8A\J	.	.	.	8cc\J	.	8a\J	8cc\J
!	!	!	!	!	!	!	!	!	!LO:N:vis=8	!	!	!	!	!
4.G\	.	.	4b\	4dd\	4G\	-lei-	4B\	-son	4b,<\	-son,	4dd\	-son	4b\	4dd\
*	*	*	*	*	*	*	*	*Xij	*	*Xij	*	*	*	*
.	.	.	8cc\	8gg\	8G\	.	8c\	e-	8g\	e-	8gg\	e-	8cc\	8ee\
=21	=21	=21	=21	=21	=21	=21	=21	=21	=21	=21	=21	=21	=21	=21
!	!	!	!	!	!	!	!LO:LB:g=original	!	!LO:LB:g=original	!	!LO:LB:g=original	!	!	!LO:N:vis=8.
4.G\	.	1.ryy	8b\L	8dd\L	2.G\	.	8B\L	-lei-	2.b\	-lei-	8dd\L	-ley-	8b\L	8dd\L
.	.	.	8g\	8b\	.	.	8G\	.	.	.	8b\	.	8g\	8b\
.	.	.	8a\J	8cc\J	.	.	8A\J	.	.	.	8cc\J	.	8a\J	8cc\J
4.G\	.	.	8b\L	8dd\L	.	.	8B\L	.	.	.	8dd\L	.	8b\L	4dd\
.	.	.	8g\	8b\	.	.	8G\	.	.	.	8b\	.	8g\	.
.	.	.	8cc\J	8ee\J	.	.	8A\J	.	.	.	8ee\J	.	8cc\J	8ee\
4.G\	.	.	8b\L	8dd\L	2.G\	.	8B\L	.	2.b\	.	8dd\L	.	8b\L	8dd\L
.	.	.	8g\	8b\	.	.	8G\	.	.	.	8b\	.	8g\	8b\
.	.	.	8a\J	8cc\J	.	.	8A\J	.	.	.	8cc\J	.	8a\J	8cc\J
4.G\	.	.	8b\L	8dd\L	.	.	8B\L	.	.	.	8dd\L	.	8b\L	8dd\L
.	.	.	8g\	8b\	.	.	8G\	.	.	.	8b\	.	8g\	8b\
.	.	.	8cc\J	8gg\J	.	.	8c\J	.	.	.	8gg\J	.	8cc\J	8ee\J
=22	=22	=22	=22	=22	=22	=22	=22	=22	=22	=22	=22	=22	=22	=22
4.G\	.	1.ryy	8b\L	8dd\L	2.G\	.	8B\L	.	2.b,<\	-son,	8dd\L	.	8b\L	8dd\L
.	.	.	8g\	8b\	.	.	8G\	.	.	.	8b\	.	8g\	8b\
.	.	.	8a\J	8cc\J	.	.	8A\J	.	.	.	8cc\J	.	8a\J	8cc\J
4.G\	.	.	8b\L	8dd\L	.	.	8B\L	.	.	.	8dd\L	.	8b\L	8dd\L
.	.	.	8g\	8b\	.	.	8G\	.	.	.	8b\	.	8g\	8b\
.	.	.	8cc\J	8ee\J	.	.	8c\J	.	.	.	8ee\J	.	8cc\J	8ee\J
4.G\	.	.	8b\L	8dd\L	4.G\	-son	8B\L	.	8g\L	e-	8dd\L	.	8b\L	8dd\L
.	.	.	8a\	8cc\	.	.	8A\	.	8a\	.	8cc\	.	8a\	8cc\
.	.	.	8g\J	8b\J	.	.	8G\J	.	8b\J	.	8b\J	.	8g\J	8b\J
4.G\	.	.	8b\L	8dd\L	8G\L	e-	8B\L	.	8b\L	-lei-	8dd\L	.	8b\L	8dd\L
.	.	.	8a\	8cc\	8B\	.	8A\	.	8a\J	.	8cc\	.	8a\	8cc\
.	.	.	8g\J	8b\J	8c\J	.	8G\J	.	8g\	-son	8b\J	.	8g\J	8b\J
=23	=23	=23	=23	=23	=23	=23	=23	=23	=23	=23	=23	=23	=23	=23
!	!	!	!	!	!LO:SIC:l:v:s=-lei-	!	!	!	!	!	!	!	!	!LO:LB:g=original
4.D\	.	1.ryy	4f#/	4a/	4d\	-lie-	4F#/	.	(8d\L	Ky-	4a\	.	4d/	4a\
.	.	.	.	.	.	.	.	.	8A\J)	.	.	.	.	.
.	.	.	8f#/	8a/	8D,</	-son,	8F#/	.	8e\	-ri-	8a\	.	8d/	8a\
4.DD/	.	.	4f#/	4a/	(<8D/L	Ky-	4F#,</	-son,	8f#\L	-e	4a,<\	-son,	4d/	4a\
.	.	.	.	.	8AA/J)	.	.	.	8d\J	.	.	.	.	.
.	.	.	8a/	8r	8E\	-ri-	8A/	e-	8g\	e-	8dd\	e-	8g\	8dd\
8D/L	.	.	4dd\	4d/ 4a 4ff#	4F#\	-e	4F#/	-lei-	4a\	-lei-	4a\	-le-	4d/	4a\
8GG/	.	.	.	.	.	.	.	.	.	.	.	.	.	.
8E/J	.	.	8dd\	8d/ 8a 8ff#	8F#\	e-	8F#/	.	8a\	.	8a\	-y-	8d/	8a\
!	!	!	!LO:LB:g=original	!	!	!	!	!	!	!	!	!	!	!
4F#\	.	.	4dd\	4d/ 4a 4ff#	4F#\	-lei-	4F#,</	-son,	4a\	-son	4a,<\	-son,	4d/	4a\
8r	.	.	8ryy	8r	8G\	-son	8A/	e-	8dd\	e-	8dd\	e-	8g\	8dd\
=24	=24	=24	=24	=24	=24	=24	=24	=24	=24	=24	=24	=24	=24	=24
!	!	!	!	!	!	!	!	!	!	!	!	!	!LO:LB:g=original	!LO:TX:t=P:problem=skreślony takt
8D/L	.	1.ryy	4.dd\	8d/L 8a 8ff#	8F#\L	e-	4.A/	-lei-	8a\L	-lei-	4dd\	-ley-	4d/	4a\
8AA/	.	.	.	8d/J 8a 8ff#	8D\	.	.	.	8f#\	.	.	.	.	.
8FF#/J	.	.	.	4d/ 4a 4ff#	8E\J	.	.	.	8g\J	.	8dd\	.	8d/	8a\
4DD/	.	.	4r	.	4F#\	.	4.A/	.	4a,<\	-son,	4dd\	.	4d/	4a\
.	.	.	.	8r	.	.	.	.	.	.	.	.	.	.
8r	.	.	8dd\	8ff#\	8G\	.	.	.	8dd\	e-	8dd\	.	8g\	8dd\
!LO:LB:g=original	!	!	!	!	!	!	!	!	!	!	!	!	!	!
8D/L	.	.	2.dd\	2.ff#\	8F#\L	-lei-	4.A/	.	8a\L	-lei-	4.dd\	.	4d/	4a\
8AA/	.	.	.	.	8D\	.	.	.	8f#\	.	.	.	.	.
8FF#/J	.	.	.	.	8E\J	.	.	.	8g\J	.	.	.	8d/	8a\
4DD/	.	.	.	.	4F#,<\	-son	4.A/	.	4a,<\	-son,	4.dd\	.	4d/	4a\
8r	.	.	.	.	8G\	e-	.	.	8dd\	e-	.	.	8d/	8a\
=25	=25	=25	=25	=25	=25	=25	=25	=25	=25	=25	=25	=25	=25	=25
4.D\	.	1.ryy	2.dd\	2.ff#\	8F#\L	.	2.A/	.	8a\L	-lei-	2.dd\	.	2.d/	2.a\
.	.	.	.	.	8D\	.	.	.	8f#\	.	.	.	.	.
.	.	.	.	.	8E\J	.	.	.	8g\J	.	.	.	.	.
4.DD/	.	.	.	.	8F#\L	.	.	.	8a\L	.	.	.	.	.
.	.	.	.	.	8D\	.	.	.	8f#\	.	.	.	.	.
.	.	.	.	.	8G\J	.	.	.	8b\J	.	.	.	.	.
!	!	!	!	!	!	!	!	!	!LO:LB:g=original	!	!	!	!	!
4.DD/	.	.	2.dd\	2.ff#\	8F#\L	.	2.A/	.	8a\L	.	2.dd\	.	2.d/	2.a\
.	.	.	.	.	8D\	.	.	.	8f#\	.	.	.	.	.
.	.	.	.	.	8E\J	.	.	.	8g\J	.	.	.	.	.
4.DD/	.	.	.	.	8F#\L	.	.	.	8a\L	.	.	.	.	.
.	.	.	.	.	8D\	.	.	.	8f#\	.	.	.	.	.
.	.	.	.	.	8G\J	.	.	.	8dd\J	.	.	.	.	.
=26	=26	=26	=26	=26	=26	=26	=26	=26	=26	=26	=26	=26	=26	=26
!	!	!	!	!LO:LB:g=original	!	!	!	!	!	!	!	!	!	!
4.D\	.	1.ryy	2.dd\	2.ff#\	8F#\L	.	2.A/	.	8a\L	.	2.dd\	.	2.d/	2.a\
.	.	.	.	.	8D\	.	.	.	8f#\	.	.	.	.	.
.	.	.	.	.	8E\J	.	.	.	8g\J	.	.	.	.	.
4.DD/	.	.	.	.	8F#\L	.	.	.	8a\L	.	.	.	.	.
.	.	.	.	.	8D\	.	.	.	8f#\	.	.	.	.	.
.	.	.	.	.	8G\J	.	.	.	8b\J	.	.	.	.	.
4.DD/	.	.	2.dd\	2.ff#\	8F#\L	.	2.A/	-son	8a\L	.	2.dd\	-son	2.d/	2.a\
.	.	.	.	.	8E\	.	.	.	8g\	.	.	.	.	.
.	.	.	.	.	8D\J	.	.	.	8f#\J	.	.	.	.	.
4.DD/	.	.	.	.	8C/L	.	.	.	8e\L	.	.	.	.	.
.	.	.	.	.	8BB/	.	.	.	8d\	.	.	.	.	.
.	.	.	.	.	8AA/J	.	.	.	8c\J	-son	.	.	.	.
=27	=27	=27	=27	=27	=27	=27	=27	=27	=27	=27	=27	=27	=27	=27
!	!	!	!	!	!	!	!	!	!	!	!	!	!	!LO:TX:t=P:problem=mixed beam
4.D\	.	1.ryy	4.b/	8g/L	4.D\	-lei-	2.r	.	4B/	Ky-	8g/L	Ky-	8B/L	8g\L
.	.	.	.	8d/	.	.	.	.	.	.	8d/J	.	8G/	8d/
.	.	.	.	8a/J	.	.	.	.	8B/	-ri-	8a\	-ri-	8d/J	8dd\J
4.D\	.	.	8g/L	8b/L	4.D\	-son	.	.	4B/	-e	8b\L	-e	8g\L	8b\L
.	.	.	8d/	8g/	.	.	.	.	.	.	8g\	.	8d\	8g\
.	.	.	8a/J	8cc/J	.	.	.	.	8b\	e-	8cc\J	e-	8a\J	8cc\J
8D\L	.	.	8b\L	4dd\	8D\L	e-	8G/L	Ky-	4b\	-lei-	4dd\	-le-	4b\	4dd\
8E\	.	.	8g\	.	8E\	.	8D/J	.	.	.	.	.	.	.
8F#\J	.	.	8a\J	8dd\	8F#\J	.	8A\	-ri-	8b\	.	8dd\	-i-	8b\	8dd\
!LO:SIC:v:s=8G\L	!	!	!	!	!LO:SIC:v:s=8G\L	!	!	!	!	!	!	!	!	!
8F#\L	.	.	4b\	4dd\	8F#\L	.	4B,<\	-e,	4b,<\	-son,	4dd,<\	-son	4b\	4dd\
!LO:SIC:v:s=8F#\	!	!	!	!	!LO:SIC:v:s=8F#\	!	!	!	!	!	!	!	!	!
8E\	.	.	.	.	8E\	.	.	.	.	.	.	.	.	.
!LO:SIC:v:s=8E\J	!	!	!	!	!LO:SIC:v:s=8E\L	!	!	!	!	!	!	!	!	!
8D\J	.	.	8dd\	8gg\	8D\J	.	8c\	e-	8b\	e-	8gg\	e-	8dd\	8gg\
=28	=28	=28	=28	=28	=28	=28	=28	=28	=28	=28	=28	=28	=28	=28
!	!	!	!	!	!LO:LB:g=original	!	!LO:LB:g=original	!	!	!	!LO:LB:g=original	!	!	!
8G\L	.	1.ryy	8b\L	8dd\L	4.GG/	-lei-	8B\L	-lei-	2.b\	-lei-	8dd\L	-ley-	8b\L	8dd\L
8D\	.	.	8g\	8b\	.	.	8G\	.	.	.	8b\	.	8g\	8b\
8BB\J	.	.	8a\J	8cc\J	.	.	8A\J	.	.	.	8cc\J	.	8a\J	8cc\J
4GG/	.	.	4b\	4dd\	4GG,</	-son,	4B,<\	-son,	.	.	4dd,<\	-son,	4b\	4dd\
8r	.	.	8cc\	8gg\	8GG/	e-	8c\	e-	.	.	8gg\	e-	8dd\	8gg\
8G\L	.	.	8b\L	8dd\L	4.G\	-lei-	8B\L	-lei-	2.b\	.	8dd\L	-lei-	8b\L	8dd\L
8D\	.	.	8g\	8b\	.	.	8G\	.	.	.	8b\	.	8g\	8b\
8BB\J	.	.	8a\J	8cc\J	.	.	8A\J	.	.	.	8cc\J	.	8a\J	8cc\J
4GG/	.	.	4b\	4dd\	4GG,</	-son,	4B\	-son	.	.	4dd,<\	-son,	4b\	4dd\
*	*	*	*	*	*	*	*	*ij	*	*	*	*	*	*
8r	.	.	8cc\	8gg\	8GG/	e-	8c\	e-	.	.	8gg\	e-	8dd\	8gg\
=29	=29	=29	=29	=29	=29	=29	=29	=29	=29	=29	=29	=29	=29	=29
2.G\	.	1.ryy	8b\L	8dd\L	2.G\	-ley-	8B\L	-lei-	2.b\	.	8dd\L	-lei-	4b\	4dd\
.	.	.	8cc\	8ee\	.	.	8c\	.	.	.	8ee\	.	.	.
!	!	!	!	!LO:N:acc=-	!	!	!	!	!	!	!	!	!	!
.	.	.	8dd\J	8ffn\J	.	.	8d\J	.	.	.	8ffn\J	.	8b\	8dd\
.	.	.	8dd\L	8ff\L	.	.	8d\L	.	.	.	8ff\L	.	4b\	4dd\
.	.	.	8cc\	8ee\	.	.	8c\	.	.	.	8ee\	.	.	.
.	.	.	8b\J	8dd\J	.	.	8B\J	.	.	.	8dd\J	.	8b\	8dd\
2.G\	.	.	8cc\L	8ee\L	2.G\	.	4c,<\	-son,	4cc,<\	-son,	4ee\	.	4cc\	4ee\
.	.	.	8g\	8cc\	.	.	.	.	.	.	.	.	.	.
!	!	!	!LO:N:acc=-	!	!	!	!	!	!	!	!LO:SIC:v:s=8dd\	!	!	!LO:LB:g=original
.	.	.	8ffn\J	8ccc\J	.	.	8c\	e-	8g\	e-	8ee\	.	8g\	8cc\
.	.	.	4ee\	8gg\L	.	.	(4c\	-lei-	4g\	-lei-	4ee,<\	-son,	4g\	4cc\
.	.	.	.	8cc\	.	.	.	.	.	.	.	.	.	.
!	!	!	!	!	!	!	!LO:SIC:v:s=8g\)	!	!	!	!	!	!	!
.	.	.	8ff\	8ccc\J	.	.	8f#\)	.	8g\	.	8gg\	e-	8r	8r
=30	=30	=30	=30	=30	=30	=30	=30	=30	=30	=30	=30	=30	=30	=30
4.G\	.	1.ryy	8ee\L	8gg\L	4.G\	.	4c,<\	-son,	4g,<\	-son,	4ee\	-le-	00.r	00.r
.	.	.	8cc\	8ee\	.	.	.	.	.	.	.	.	.	.
!	!	!	!	!LO:N:acc=-	!	!	!	!	!	!	!	!	!	!
.	.	.	8dd\J	8ffn\J	.	.	8c\	e-	8g\	e-	8ee\	-i-	.	.
8G\L	.	.	4ee\	4gg\	8G\L	.	4c\	-lei-	4g\	-lei-	4ee,<\	-son,	.	.
8A\	.	.	.	.	8A\	.	.	.	.	.	.	.	.	.
*	*	*	*	*	*	*	*	*	*	*	*	*ij	*	*
!	!	!	!LO:SIC:v:s=8ffn\	!	!	!	!	!	!	!	!	!	!	!
8B\J	.	.	8ff#\	8ccc\	8B\J	.	8f#\	.	8g\	.	8gg\	e-	.	.
!LO:LB:g=original	!	!	!	!	!	!	!	!	!LO:LB:g=original	!	!	!	!	!
8c\L	.	.	8ee\L	8gg\L	4c\	.	4c,<\	-son,	4g\	-son	4ee\	-le-	.	.
8G\	.	.	8cc\	8ee\	.	.	.	.	.	.	.	.	.	.
!	!	!	!	!LO:N:acc=-	!	!	!	!	!	!	!	!	!	!
8E\J	.	.	8dd\J	8ffnX\J	8C/	.	8c\	e-	8g\	e-	8ee\	-i-	.	.
4C/	.	.	4ee\	4gg\	4C,</	-son,	4c\	-lei-	4g\	-lei-	4ee,<\	-son	.	.
*	*	*	*	*	*	*	*	*	*	*	*	*Xij	*	*
!	!	!	!LO:SIC:v:s=8ff\	!	!	!	!	!	!	!	!	!	!	!
8r	.	.	8ff#\	8aa\	8C/	e-	8e\	-son	8g\	.	8gg\	e-	.	.
=31	=31	=31	=31	=31	=31	=31	=31	=31	=31	=31	=31	=31	=31	=31
*	*	*	*	*	*	*	*	*Xij	*	*	*	*	*	*
!	!	!	!LO:LB:g=original	!	!	!	!	!	!	!	!	!	!	!
8c\L	.	1.ryy	8ee\L	8gg\L	4c\	-lei-	8e\L	e-	2.g\	.	8gg\L	-ley-	.	.
8G\	.	.	8cc\	8ee\	.	.	8c\	.	.	.	8ee\	.	.	.
!	!	!	!LO:SIC:v:s=8ffn\J	!	!	!	!LO:SIC:v:s=8fn\J	!	!	!	!	!	!	!
8E\J	.	.	8ff#\J	8aa\J	8C/	.	8f#\J	.	.	.	8aa\J	.	.	.
4C/	.	.	8ee\L	8gg\L	4C,</	-son,	8e\L	.	.	.	8gg\L	.	.	.
.	.	.	8cc\	8ee\	.	.	8c\	.	.	.	8ee\	.	.	.
*	*	*	*	*	*	*ij	*	*	*	*	*	*	*	*
!	!	!	!	!LO:N:acc=-	!	!	!	!	!	!	!LO:SIC:v:s=8ffn\J	!	!	!
8r	.	.	8dd\J	8ffnX\J	8C/	e-	8d\J	.	.	.	8ff#\J	.	.	.
8c\L	.	.	8ee\L	8gg\L	4c\	-lei-	8e\L	.	2.g\	.	8gg\L	.	.	.
8G\	.	.	8cc\	8ee\	.	.	8c\	.	.	.	8ee\	.	.	.
!	!	!	!LO:SIC:v:s=8ff\J	!	!	!	!LO:SIC:v:s=f\J	!	!	!	!	!	!	!
8E\J	.	.	8ff#\J	8aa\J	8C/	.	8f#\J	.	.	.	8aa\J	.	.	.
4C/	.	.	8ee\L	8gg\L	4C,</	-son,	8e\L	.	.	.	8gg\L	.	.	.
*	*	*	*	*	*	*Xij	*	*	*	*	*	*	*	*
.	.	.	8cc\	8ee\	.	.	8c\	.	.	.	8ee\	.	.	.
*	*	*	*	*custos:A	*	*	*	*	*	*	*	*	*	*
!	!	!	!	!	!	!	!	!	!	!	!LO:SIC:v:s=8ff\J	!	!	!
8r	.	.	8dd\J	8ffny\J	8C/	e-	8d\J	.	.	.	8ff#\J	.	.	.
=32	=32	=32	=32	=32	=32	=32	=32	=32	=32	=32	=32	=32	=32	=32
!	!	!	!	!LO:LB:g=original	!	!	!	!	!	!	!	!	!	!
2.C/	.	1.ryy	8ee\L	8gg\L	2.C/	-lei-	8e\L	.	2.g\	.	8gg\L	.	.	.
.	.	.	8cc\	8ee\	.	.	8c\	.	.	.	8ee\	.	.	.
!	!	!	!LO:SIC:v:s=8ffn\J	!	!	!	!LO:SIC:v:s=8fn\J	!	!	!	!	!	!	!
.	.	.	8ff#\J	8aa\J	.	.	8f#\J	.	.	.	8aa\J	.	.	.
.	.	.	8ee\L	8gg\L	.	.	8e\L	.	.	.	8gg\L	.	.	.
.	.	.	8cc\	8ee\	.	.	8c\	.	.	.	8ee\	.	.	.
!	!	!	!	!LO:SIC:v:s=8ffn\J	!	!	!	!	!	!	!LO:SIC:v:s=8ffn\J	!	!	!
.	.	.	8dd\J	8ff#\J	.	.	8d\J	.	.	.	8ff#\J	.	.	.
4.C/	.	.	8ee\L	8gg\L	4.C/	.	8e\L	.	2.g\	.	8gg\L	.	.	.
!	!	!	!	!LO:SIC:v:s=8ff\	!	!	!	!	!	!	!LO:SIC:v:s=8ff\	!	!	!
.	.	.	8dd\	8ff#\	.	.	8d\	.	.	.	8ff#\	.	.	.
.	.	.	8cc\J	8ee\J	.	.	8c\J	.	.	.	8ee\J	.	.	.
!	!	!	!LO:SIC:v:s=8b-\L	!	!	!	!	!	!	!	!	!	!	!
8C/L	.	.	8b\L	8ee\L	8C/L	.	8c\L	.	.	.	8ee\L	.	.	.
!	!	!	!	!	!	!	!	!	!	!	!LO:SIC:v:s=8ff\	!	!	!
8D/	.	.	8a\	8dd\	8D/	.	8d\	.	.	.	8ff#\	.	.	.
8E/J	.	.	8g\J	8cc\J	8E/J	.	8e\J	.	.	.	8gg\J	.	.	.
=33	=33	=33	=33	=33	=33	=33	=33	=33	=33	=33	=33	=33	=33	=33
!	!	!	!	!LO:N:acc=-	!	!	!LO:LB:g=original	!	!	!	!LO:LB:g=original	!	!	!
4Fn\	.	1.ryy	8a/L	8ffnX\L	4Fn\	.	4fn\	-ley-	4a,<\	-son,	4aa,<\	-son,	.	.
!	!	!	!LO:SIC:v:s=8fn/	!	!	!	!	!	!	!	!	!	!	!
.	.	.	8f#/	8cc\	.	.	.	.	.	.	.	.	.	.
8F\	.	.	8cc/J	8aa\J	8F,<\	-son,	8c\	.	8a\	e-	8ffn\	e-	.	.
4F\	.	.	4a/	4ffny\	4F\	Ky-	4c,<\	-son,	4a\	-lei-	4ff\	-le-	.	.
!	!	!	!LO:SIC:v:s=8ff\	!	!	!	!	!	!	!	!	!	!	!
8F\	.	.	8ff#\	8ccc\	8F\	-ri-	8c\	e-	8a\	.	8ff\	-i-	.	.
!	!	!	!	!LO:SIC:v:s=8f\	!	!	!	!	!	!	!LO:TX:t=P:problem=repetycja dwóch ostatnich nut w takcie	!	!	!
=-	=-	=-	=-	=-	=-	=-	=-	=-	=-	=-	=!||:	=	=-	=-
4F\	.	.	8a/L	8gg\L	4F\	-e	4c\	-lei-	4a,<\	-son,	4ff,<\	-son,	.	.
!	!	!	!LO:SIC:v:s=8f/	!	!	!	!	!	!	!	!	!	!	!
.	.	.	8f#/	8cc\	.	.	.	.	.	.	.	.	.	.
8FFny/	.	.	8cc/J	8aa\J	8FFny/	e-	8c\	.	8a\	e-	8ff\	e-	.	.
=-	=-	=-	=-	=-	=-	=-	=-	=-	=-	=-	=:||!	=	=-	=-
4FF/	.	.	4a/	4ffny\	4FF/	-lei-	4c,<\	-son,	4a\	-ley-	4ff,<\yy	-le-	.	.
*	*	*	*	*	*	*	*	*ij	*	*	*	*	*	*
!	!	!	!LO:SIC:v:s=8ff\	!	!	!	!	!	!	!	!	!	!	!
8FF/	.	.	8ff#\	8ccc\	8FF/	-son	8c\	e-	8a\	.	8ff\yy	.	.	.
=34	=34	=34	=34	=34	=34	=34	=34	=34	=34	=34	=34	=34	=34	=34
!	!	!	!	!	!LO:LB:g=original	!	!	!	!	!	!	!	!	!
!LO:SIC:v:s=4Fn\	!	!	!	!LO:SIC:v:s=8ffn\L	!LO:SIC:v:s=4Fn\	!	!	!	!	!	!	!	!	!
4F#\	.	1.ryy	8a/L	8ff#\L	4F#\	Ky-	4c\	-lei-	4a,<\	-son	4ffn\	-i-	00.r	00.r
!	!	!	!LO:SIC:v:s=8fn/	!	!	!	!	!	!	!	!	!	!	!
.	.	.	8f#/	8cc\	.	.	.	.	.	.	.	.	.	.
!LO:SIC:v:s=8FFn/	!	!	!	!	!LO:SIC:v:s=8FFn/	!	!	!	!	!	!	!	!	!
8FF#/	.	.	8cc/J	8aa\J	8FF#/	-ri-	8c\	.	8a\	e-	8ff,<\	-son,	.	.
!LO:SIC:v:s=8FF/	!	!	!	!LO:SIC:v:s=4ff\	!LO:SIC:v:s=4FF/	!	!	!	!	!	!	!	!	!
4FF#/	.	.	4a/	4ff#\	4FF#/	-e	4c,<\	-son,	4a\	-lei-	4ff\	e-	.	.
8F#\	.	.	8ff#\	8aa\	8F#\	e-	8d\	e-	8a\	-son	8ff#X\	-ley-	.	.
4.D\	.	.	8ff#\L	8aa\L	4.D\	-lei-	4d\	-lei-	8a\L	e-	8ff#\L	.	.	.
.	.	.	8ee\	8gg\	.	.	.	.	8b\	.	8gg\	.	.	.
.	.	.	8dd\J	8ff#\J	.	.	8d\	.	8cc\J	.	8aa\J	.	.	.
8D\L	.	.	8cc\L	8ff#\L	8D\L	.	4d,<\	-son,	8a\L	-lei-	4dd\	.	.	.
8E\	.	.	8b\	8gg\	8E\	.	.	.	8g\	.	.	.	.	.
8F#\J	.	.	8a\J	8aa\J	8F#\J	.	8d\	e-	8f#\J	-son	8cc\	.	.	.
=35	=35	=35	=35	=35	=35	=35	=35	=35	=35	=35	=35	=35	=35	=35
4G\	.	1.ryy	8dd\L	8gg\L	4G\	.	4d\	-lei-	(8g\L	e-	4b,<\	-son,	.	.
.	.	.	8b\	8dd\	.	.	.	.	8d\J)	.	.	.	.	.
8GG/	.	.	8gg\J	8bb\J	8GG/	.	8d\	.	8b\	-lei-	8b\	e-	.	.
4GG/	.	.	4dd\	4gg\	4GG,</	-son,	4d,<\	-son,	4g,<\	-son,	4b\	-ley-	.	.
8G\	.	.	8gg\	8bb\	8G\	e-	8d\	e-	8b\L	e-	8b\	.	.	.
!LO:LB:g=original	!	!	!	!	!	!	!	!	!	!	!	!	!	!
4G\	.	.	8dd\L	8gg\L	4G,>\	-lei-	4d\	-lei-	8g\	.	4b,<\	-son,	.	.
.	.	.	8b\	8dd\	.	.	.	.	8d\J	.	.	.	.	.
8GG/	.	.	8gg\J	8bb\J	8GG/	.	8d\	.	8b\	-lei-	8b\	e-	.	.
4GG/	.	.	4dd\	4gg\	4GG,</	-son,	4d\	.	4g,<\	-son,	4b\	-ley-	.	.
8G\	.	.	8gg\	8bb\	8G\	e-	8d\	son,	8b\	e-	8b\	.	.	.
=36	=36	=36	=36	=36	=36	=36	=36	=36	=36	=36	=36	=36	=36	=36
!	!	!	!	!	!	!	!	!	!LO:LB:g=original	!	!	!	!	!
4G\	.	1.ryy	8dd\L	8gg\L	4G\	-lei-	4d\	e-	8g\L	-lei-	4b,<\	-son,	.	.
.	.	.	8b\	8dd\	.	.	.	.	8d\J	.	.	.	.	.
8GG/	.	.	8gg\J	8bb\J	8GG/	.	8d\	-lei-	8b\	-son,	8b\	e-	.	.
4GG/	.	.	4dd\	4gg\	4GG,</	-son,	4d\	-son	4g,<\	e-	4b\	-ley-	.	.
*	*	*	*	*	*	*ij	*	*Xij	*	*	*	*	*	*
8G\	.	.	8gg\	8bb\	8G\	e-	8d\	e-	8g\	-lei-	8b\	.	.	.
4.G\	.	.	8gg\L	8bb\L	4.G\	-lei-	8d\L	-lei-	4g\	.	8b\L	.	.	.
.	.	.	8ff#\	8aa\	.	.	8e\	.	.	.	8cc\	.	.	.
.	.	.	8ee\J	8gg\J	.	.	8f#\J	.	8g\	.	8dd\J	.	.	.
4G\	.	.	8dd\L	8gg\L	4G,<\	-son,	8B\L	.	4g,<\	-son,	8dd\L	.	.	.
.	.	.	8ee\	8aa\	.	.	8c\	.	.	.	8een\	.	.	.
*	*	*	*	*	*	*Xij	*	*	*	*ij	*	*	*	*
*	*	*	*custos:cc	*	*	*	*	*	*	*	*	*	*	*
!	!	!	!LO:SIC:v:s=8ffn\J	!	!	!	!	!	!	!	!	!	!	!
8G\	.	.	8ff#\J	8bb\J	8G\	e-	8d\J	.	8g\	e-	8ffn\J	.	.	.
=37	=37	=37	=37	=37	=37	=37	=37	=37	=37	=37	=37	=37	=37	=37
!	!	!	!LO:LB:g=original	!	!	!	!	!	!	!	!LO:LB:g=original	!	!	!
4c\	.	1.ryy	4ee\	4ccc\	4c\	-lei-	8c\L	.	8g\L	-lei-	4ee\	.	.	.
.	.	.	.	.	.	.	8A\	.	8e\	.	.	.	.	.
8C/	.	.	8ee\	8gg\	8C/	.	8e\J	.	8g\J	.	8ee\	.	.	.
!	!	!	!	!LO:LB:g=original	!	!	!	!	!	!	!	!	!	!
4C/	.	.	4ee\	4gg\	4C/	-son	4c,<\	-son	4e,<\	-son	4ee,<\	-son,	.	.
*	*	*	*	*	*	*	*	*	*	*Xij	*	*	*	*
8C/	.	.	8ee\	8gg\	8c\	e-	8e\	e-	8e\	e-	8gg\	e-	.	.
!	!	!	!	!	!	!	!LO:LB:g=original	!	!	!	!	!	!	!
2.C/	.	.	8ee\L	8gg\L	2.c\	-lei-	8e\L	-lei-	2.e\	-lei-	8gg\L	-lei-	.	.
.	.	.	8cc\	8ee\	.	.	8c\	.	.	.	8ee\	.	.	.
!	!	!	!	!	!	!	!LO:SIC:v:s=8fn\J	!	!	!	!	!	!	!
.	.	.	8ffn\J	8aa\J	.	.	8f#\J	.	.	.	8ffn\J	.	.	.
.	.	.	8ee\L	8gg\L	.	.	8e\L	.	.	.	8gg\L	.	.	.
.	.	.	8cc\	8ee\	.	.	8c\	.	.	.	8ee\	.	.	.
!	!	!	!	!LO:N:acc=-	!	!	!	!	!	!	!	!	!	!
.	.	.	8dd\J	8ffnX\J	.	.	8d\J	.	.	.	8aa\J	.	.	.
=38	=38	=38	=38	=38	=38	=38	=38	=38	=38	=38	=38	=38	=38	=38
2.C/	.	1.ryy	8ee\L	8gg\L	2.c\	.	8e\L	.	2.e\	.	8gg\L	.	00.r	00.r
.	.	.	8cc\	8ee\	.	.	8c\	.	.	.	8ee\	.	.	.
!	!	!	!LO:SIC:v:s=8ffn\J	!	!	!	!LO:SIC:v:s=8fn\J	!	!	!	!	!	!	!
.	.	.	8ff#\J	8aa\J	.	.	8f#\J	.	.	.	8aa\J	.	.	.
.	.	.	8ee\L	8gg\L	.	.	8e\L	.	.	.	8gg\L	.	.	.
.	.	.	8cc\	8ee\	.	.	8c\	.	.	.	8ee\	.	.	.
!	!	!	!	!LO:N:acc=-	!	!	!	!	!	!	!	!	!	!
.	.	.	8dd\J	8ffnX\J	.	.	8d\J	.	.	.	8ffn\J	.	.	.
2.C/	.	.	8ee\L	8gg\L	2.c\	.	8e\L	.	2.e\	.	8gg\L	.	.	.
.	.	.	8cc\	8ee\	.	.	8c\	.	.	.	8ee\	.	.	.
!	!	!	!LO:SIC:v:s=8ff\J	!	!	!	!LO:SIC:v:s=8f\J	!	!	!	!	!	!	!
.	.	.	8ff#\J	8aa\J	.	.	8f#\J	.	.	.	8aa\J	.	.	.
.	.	.	8ee\L	8gg\L	.	.	8e\L	.	.	.	8gg\L	.	.	.
.	.	.	8cc\	8ee\	.	.	8c\	.	.	.	8ee\	.	.	.
!	!	!	!	!LO:N:acc=-	!	!	!	!	!	!	!	!	!	!
.	.	.	8dd\J	8ffnX\J	.	.	8d\J	.	.	.	8ffn\J	.	.	.
=39	=39	=39	=39	=39	=39	=39	=39	=39	=39	=39	=39	=39	=39	=39
2.C/	.	1.ryy	8ee\L	8gg\L	4c\	-son	8e\L	.	4e,<\	-son,	8gg\L	.	.	.
!	!	!	!	!LO:N:acc=-	!	!	!	!	!	!	!	!	!	!
!	!	!	!	!LO:TX:t=P:problem=- above	!	!	!	!	!	!	!	!	!	!
.	.	.	8dd\	8ffnX\	.	.	8d\	.	.	.	8ffn\	.	.	.
.	.	.	8cc\J	8ee\J	8E\	el-	8c\J	.	8e\	e-	8ee\J	.	.	.
!	!	!	!LO:SIC:v:s=8fn/L	!	!LO:SIC:v:s=(4Fn\	!	!LO:SIC:v:s=8Fn/L	!	!	!	!	!	!	!
.	.	.	8f#/L	8dd\L	(4F#\	-ei-	8F#/L	.	4.g\	-lei-	8dd\L	.	.	.
.	.	.	8e/	8cc\	.	.	8E/	.	.	.	8cc\	.	.	.
!	!	!	!	!	!	!	!	!	!	!	!LO:SIC:v:s=8b\J	!	!	!
.	.	.	8d/J	8b\J	8G\)	.	8D/J	.	.	.	8cc\J	.	.	.
2.C/	.	.	4e/	4cc\	4C/	-son	4E/	.	4g,<\	-son,	4cc\	.	.	.
.	.	.	8e/	8cc\	8C/	e-	8E/	.	8g\	e-	8gg\	.	.	.
.	.	.	4e/	4cc\	4C/	-lei-	4E/	-son	4g\	-lei-	4cc\	-son	.	.
.	.	.	8ee\	8gg\	8c\	.	8e\	e-	8e\	.	8gg\	e-	.	.
=40	=40	=40	=40	=40	=40	=40	=40	=40	=40	=40	=40	=40	=40	=40
2.C/	.	1.ryy	8ee\L	8gg\L	2.c\	.	8e\L	-lei-	2.g,<\	-son,	8gg\L	-lei-	.	.
.	.	.	8cc\	8ee\	.	.	8c\	.	.	.	8ee\	.	.	.
!	!	!	!	!	!	!	!LO:SIC:v:s=8fn\J	!	!	!	!	!	!	!
.	.	.	8ffn\J	8aa\J	.	.	8f#\J	.	.	.	8aa\J	.	.	.
.	.	.	8ee\L	8gg\L	.	.	8e\L	.	.	.	8gg\L	.	.	.
.	.	.	8cc\	8ee\	.	.	8c\	.	.	.	8ee\	.	.	.
!	!	!	!	!LO:N:acc=-	!	!	!	!	!	!	!LO:SIC:v:s=8ffn\J	!	!	!
.	.	.	8dd\J	8ffnX\J	.	.	8d\J	.	.	.	8ff#\J	.	.	.
!	!	!	!	!	!LO:LB:g=original	!	!	!	!	!	!	!	!	!
2.C/	.	.	8ee\L	8gg\L	2.c\	.	8e\L	.	2.g\	e-	8gg\L	.	.	.
.	.	.	8cc\	8ee\	.	.	8c\	.	.	.	8ee\	.	.	.
!	!	!	!	!	!	!	!LO:SIC:v:s=8f\J	!	!	!	!	!	!	!
.	.	.	8ff\J	8aa\J	.	.	8f#\J	.	.	.	8aa\J	.	.	.
.	.	.	8ee\L	8gg\L	.	.	8e\L	.	.	.	8gg\L	.	.	.
.	.	.	8cc\	8ee\	.	.	8c\	.	.	.	8ee\	.	.	.
!	!	!	!	!LO:N:acc=-	!	!	!	!	!	!	!LO:SIC:v:s=8ff\J	!	!	!
.	.	.	8dd\J	8ffnX\J	.	.	8d\J	.	.	.	8ff#\J	.	.	.
=41	=41	=41	=41	=41	=41	=41	=41	=41	=41	=41	=41	=41	=41	=41
!	!	!	!	!	!	!	!	!	!	!	!LO:LB:g=original	!	!	!
2.C/	.	1.ryy	8ee\L	8gg\L	2.c\	.	8e\L	.	2.g\	-lei-	8gg\L	.	.	.
.	.	.	8cc\	8ee\	.	.	8c\	.	.	.	8ee\	.	.	.
!	!	!	!LO:SIC:v:s=8ffn\J	!	!	!	!LO:SIC:v:s=8fn\J	!	!	!	!	!	!	!
.	.	.	8ff#\J	8aa\J	.	.	8f#\J	.	.	.	8aa\J	.	.	.
.	.	.	8ee\L	8gg\L	.	.	8e\L	.	.	.	8gg\L	.	.	.
.	.	.	8cc\	8ee\	.	.	8c\	.	.	.	8ee\	.	.	.
!	!	!	!	!LO:N:acc=-	!	!	!	!	!	!	!LO:SIC:v:s=8ffn\J	!	!	!
.	.	.	8dd\J	8ffnX\J	.	.	8d\J	.	.	.	8ff#\J	.	.	.
2.C/	.	.	8ee\L	8gg\L	4c\	.	8e\L	.	4g,<\	-son,	8gg\L	.	.	.
!	!	!	!	!	!	!	!	!	!	!	!LO:SIC:v:s=8ff\	!	!	!
.	.	.	8dd\	8ffny\	.	.	8d\	.	.	.	8ff#\	.	.	.
.	.	.	8cc\J	8ee\J	8C/	-son	8c\J	.	8a\	e-	8ee\J	.	.	.
!	!	!	!LO:SIC:v:s=8fn/L	!	!	!	!LO:SIC:v:s=8Fn/L	!	!	!	!	!	!	!
.	.	.	8f#/L	8dd\L	4G\	e-	8F#/L	.	4.g\	-lei-	8dd\L	.	.	.
.	.	.	8e/	8cc\	.	.	8E/	.	.	.	8cc\	.	.	.
.	.	.	8d/J	8b\J	8GG/	-lei-	8D/J	.	.	.	8b\J	.	.	.
=42	=42	=42	=42	=42	=42	=42	=42	=42	=42	=42	=42	=42	=42	=42
!	!	!	!	!	!	!	!	!	!LO:LB:g=original	!	!	!	!	!
8C\L	.	1.ryy	4e/	4cc\	4C,</	-son,	4E/	.	4g,<\	-son,	4cc\	.	2.r	2.r
8E\	.	.	.	.	.	.	.	.	.	.	.	.	.	.
*	*	*	*	*	*	*ij	*	*	*	*ij	*	*	*	*
8G\J	.	.	8e/	8cc\	8C/	e-	8E/	.	8g\	e-	8cc\	.	.	.
4C/	.	.	4e/	4cc\	4C/	-lei-	4E/	-son	4g\	-lei-	4cc,<\	-son,	.	.
!	!	!	!	!	!	!	!	!	!	!	!LO:SIC:v:s=8dd\	!	!	!
8r	.	.	8f#X/	8dd\	8C/	-son,	8F#/	e-	8g\	.	8ee\	e-	.	.
4GG/	.	.	8g/L	8b\L	4G\	e-	4G/	-lei-	4d,<\	-son	4b\	-ley-	4g\	4b\
*	*	*	*	*	*	*Xij	*	*	*	*Xij	*	*	*	*
.	.	.	8b/	8dd\	.	.	.	.	.	.	.	.	.	.
8r	.	.	8b/J	8dd\J	8r	.	8r	.	8r	.	8r	.	8r	8r
4D/	.	.	8f#/L	8a\L	4D/	-lei-	4F#/	.	4d\	e-	4a\	.	4d/	4a\
.	.	.	8a/	8dd\	.	.	.	.	.	.	.	.	.	.
8r	.	.	8a/J	8dd\J	8r	.	8r	.	8r	.	8r	.	8r	8r
=43	=43	=43	=43	=43	=43	=43	=43	=43	=43	=43	=43	=43	=43	=43
!LO:LB:g=original	!	!	!LO:LB:g=original	!LO:LB:g=original	!	!	!LO:LB:g=original	!	!	!	!	!	!	!
4GG/	.	1.ryy	8g/L	8b\L	4G\	.	4G/	-son	4d\	.	4b\	-son	4g\	4b\
.	.	.	8b/	8dd\	.	.	.	.	.	.	.	.	.	.
8r	.	.	8b/J	8dd\J	8r	.	8r	.	8r	.	8r	.	8r	8r
4D\	.	.	8f#/L	8a\L	4D/	.	4F#/	e-	4d\	.	4a\	e-	4d/	4a\
.	.	.	8a/	8dd\	.	.	.	.	.	.	.	.	.	.
8r	.	.	8a/J	8dd\J	8r	.	8r	.	8r	.	8r	.	8r	8r
4GG/	.	.	8g/L	8b\L	4G\	.	4G/	-lei-	4d\	.	4b\	-ley-	4g\	4b\
.	.	.	8b/	8dd\	.	.	.	.	.	.	.	.	.	.
8r	.	.	8b/J	8dd\J	8r	.	8r	.	8r	.	8r	.	8r	8r
4D\	.	.	8f#/L	8a\L	4D/	.	4F#/	.	4d\	.	4a\	.	4d/	4a\
.	.	.	8a/	8dd\	.	.	.	.	.	.	.	.	.	.
8r	.	.	8a/J	8dd\J	8r	.	8r	.	8r	.	8r	.	8r	8r
=44	=44	=44	=44	=44	=44	=44	=44	=44	=44	=44	=44	=44	=44	=44
!	!	!	!	!	!	!	!	!	!	!	!	!	!LO:LB:g=original	!
4.GG/	.	1.ryy	4g/	8b\L	4G\	.	4G,</	-son,	2.d\	-lei-	4b\	-son,	4g\	4b\
.	.	.	.	8dd\	.	.	.	.	.	.	.	.	.	.
.	.	.	8f#/	8dd\J	8D\	.	8F#/	e-	.	.	8a\	e-	8d/	8a\
4BB/	.	.	8g/L	8b/L	8G\L	.	8G/L	-lei-	.	.	8b\L	-lei-	8g\L	8b\L
.	.	.	8f#/	8a/	8D\	.	8F#/	.	.	.	8a\	.	8d\	8a\
8C/	.	.	8e/J	8g/J	8BB\J	.	8E/J	.	.	.	8g\J	.	8B\J	8g\J
4D/	.	.	4d/	8f#/L	8GG/	-son	4F#/	.	4d,<\	-son,	4a\	.	8d/L	8a\L
.	.	.	.	8g/	4D/	Ky-	.	.	.	.	.	.	8d/	8a\
*	*	*	*	*	*	*	*	*	*	*ij	*	*	*	*
8D/	.	.	8d/	8a/J	.	.	8F#/	.	8d\	e-	8a\	.	8d/J	8a\J
4D/	.	.	4d/	4d/	8D/	-ri-	4F#/	-son	4d\	-lei-	4a\	.	4d/	4a\
.	.	.	.	.	4D/	-e	.	.	.	.	.	.	.	.
8DD/	.	.	8A/	8d/	.	.	8r	.	8d\	.	8d/	-son	8r	8r
=45	=45	=45	=45	=45	=45	=45	=45	=45	=45	=45	=45	=45	=45	=45
!	!	!	!	!	!	!	!	!	!LO:N:vis-4	!	!	!	!	!
4.GG/	.	1.ryy	4B/	8g/L	4r	.	8r	.	8B/	-son	8g/L	e-	4B/	8g\L
.	.	.	.	8d/	.	.	8r	.	8d\	e-	8d/	.	.	8d\
.	.	.	8d/	8a/J	8r	.	8D/	e-	4g\	-lei-	8a/J	.	8r	8a\J
4.GG/	.	.	8g/L	8b/L	8r	.	8G/L	-lei-	.	.	8b\L	.	4r	8b\L
.	.	.	8d/	8g/	8r	.	8D/	.	8f#\	.	8g\	.	.	8g\
.	.	.	8a/J	8cc/J	8D\	e-	8A/J	.	4.g,<\	-son,	8cc\J	.	8d/	8a\J
*	*	*	*	*	*	*	*	*	*	*Xij	*	*	*	*
8GG/L	.	.	8b/L	4dd\	8G\L	-lei-	4B\	.	.	.	4dd\	-lei-	8g\L	8b\L
8DD/	.	.	8g/	.	8D\	.	.	.	.	.	.	.	8d\	8g\
8GG/J	.	.	8a/J	8dd\	8A\J	.	8B\	.	8f#\	e-	8dd\	.	8a\J	8cc\J
4.GG/	.	.	4b\	4dd\	4B,<\	-son,	4B\	-son	8g\L	-lei-	4dd\	-son	4b\	4dd\
.	.	.	.	.	.	.	.	.	8d\J	.	.	.	.	.
.	.	.	8cc\	8gg\	8G\	e-	8c\	e-	8a\	.	8gg\	e-	8g\	8b\
=46	=46	=46	=46	=46	=46	=46	=46	=46	=46	=46	=46	=46	=46	=46
8G\L	.	1.ryy	4b\	4dd\	4G\	-lei-	4B\	-lei-	4g,<\	-son,	4dd\	-ley-	8b\L	8dd\L
8D\	.	.	.	.	.	.	.	.	.	.	.	.	8g\	8b\
*	*	*	*	*	*	*	*	*	*	*ij	*	*	*	*
8BB\J	.	.	8b\	8dd\	8G\	.	8B\	.	8g\	e-	8dd\	.	8a\J	8cc\J
4GG/	.	.	4b\	4dd\	4G,<\	-son	4B\	-son	4g\	-lei-	4dd,<\	-son,	4b\	4dd\
!	!	!	!	!	!	!	!	!	!	!	!LO:LB:g=original	!	!	!
*	*	*	*	*	*	*	*	*ij	*	*	*	*	*	*
8r	.	.	8cc\	8gg\	8G\	e-	8c\	e-	8g\	.	8gg\	e-	8cc\	8ee\
!	!	!	!	!	!LO:LB:g=original	!	!	!	!	!	!	!	!	!
8G\L	.	.	4b\	4dd\	4G\	-lei-	4B\	-lei-	4g\	-son,	4dd\	-ley-	8b\L	8dd\L
*	*	*	*	*	*	*	*	*	*	*Xij	*	*	*	*
8D\	.	.	.	.	.	.	.	.	.	.	.	.	8g\	8b\
8BB\J	.	.	8b\	8dd\	8G\	.	8B\	.	8g\	e-	8dd\	.	8a\J	8cc\J
4GG/	.	.	4b\	4dd\	4G,<\	-son,	4B,<\	-son	4g\	-lei-	4dd,<\	-son,	4b\	4dd\
*	*	*	*	*	*	*	*	*Xij	*	*	*	*	*	*
8r	.	.	8cc\	8gg\	8G\	e-	8c\	e-	8cc\	.	8gg\	e-	8cc\	8ee\
=47	=47	=47	=47	=47	=47	=47	=47	=47	=47	=47	=47	=47	=47	=47
!	!	!	!	!	!	!	!	!	!LO:LB:g=original	!	!	!	!	!
4.GG/	.	1.ryy	8b/L	8dd\L	2.G\	-lei-	8B\L	-lei-	2.b,<\	-son,	8dd\L	-lei-	4b\	4dd\
.	.	.	8g/	8b\	.	.	8G\	.	.	.	8b\	.	.	.
.	.	.	8a/J	8ee\J	.	.	8A\J	.	.	.	8cc\J	.	8r	8r
4.GG/	.	.	8b/L	8dd\L	.	.	8B\L	.	.	.	8dd\L	.	4b\	4dd\
.	.	.	8g/	8b\	.	.	8G\	.	.	.	8b\	.	.	.
.	.	.	8cc/J	8gg\J	.	.	8c\J	.	.	.	8ee\J	.	8r	8r
4.GG/	.	.	8b/L	8dd\L	2.G\	.	8B\L	.	2.b\	e-	8dd\L	.	4b\	4dd\
.	.	.	8g/	8b\	.	.	8G\	.	.	.	8b\	.	.	.
.	.	.	8a/J	8cc\J	.	.	8A\J	.	.	.	8cc\J	.	8r	8r
4.GG/	.	.	8b/L	8dd\L	.	.	8B\L	.	.	.	8dd\L	.	4b\	4dd\
.	.	.	8g/	8b\	.	.	8G\	.	.	.	8b\	.	.	.
.	.	.	8cc/J	8ee\J	.	.	8c\J	.	.	.	8ee\J	.	8r	8r
=48	=48	=48	=48	=48	=48	=48	=48	=48	=48	=48	=48	=48	=48	=48
4.GG/	.	1.ryy	8b/L	8dd\L	2.G\	.	8B\L	.	2.b\	-lei-	8dd\L	.	4b\	4dd\
.	.	.	8g/	8b\	.	.	8G\	.	.	.	8b\	.	.	.
.	.	.	8a/J	8cc\J	.	.	8A\J	.	.	.	8cc\J	.	8r	8r
4.GG/	.	.	8b/L	8dd\L	.	.	8B\L	.	.	.	8dd\L	.	4b\	4dd\
.	.	.	8g/	8b\	.	.	8G\	.	.	.	8b\	.	.	.
.	.	.	8cc/J	8gg\J	.	.	8c\J	.	.	.	8gg\J	.	8r	8r
!	!	!	!	!	!	!	!	!	!	!	!	!	!	!LO:LB:g=original
4.GG/	.	.	8b/L	8dd\L	4.G\	.	8B\L	.	4.b\	-son	8dd\L	.	4b\	4dd\
.	.	.	8g/	8b\	.	.	8G\	.	.	.	8b\	.	.	.
.	.	.	8a/J	8cc\J	.	.	8A\J	.	.	.	8cc\J	.	8r	8r
4GG/	.	.	4b/	4dd\	4G\	-son	4B\	.	4b\	Ky-	4dd\	-son	4b\	4dd\
8D/	.	.	8a/	8cc\	8D/	e-	8A\	.	8a\	-ri-	8cc\	e-	8r	8r
=49	=49	=49	=49	=49	=49	=49	=49	=49	=49	=49	=49	=49	=49	=49
!LO:LB:g=original	!	!	!LO:LB:g=original	!LO:LB:g=original	!	!	!LO:LB:g=original	!	!	!	!	!	!	!
4G\	.	1.ryy	8g/L	8b/L	4G\	-lei-	4G/	-son	4g,<\	-e,	8b\L	-lei-	8g\L	8b\L
.	.	.	8f#/	8a/	.	.	.	.	.	.	8a\	.	8a\	8cc\
8GG/	.	.	8e/J	8g/J	8GG/	.	8B\	e-	8e\	e-	8g\J	.	8b\J	8dd\J
4D\	.	.	4d/	8a/L	4D,</	-son,	4.d\	-lei-	4d\	-lei-	8a\L	.	8a\L	8cc\L
.	.	.	.	8g/	.	.	.	.	.	.	8g\	.	8g\	8b\
*	*	*	*	*	*	*ij	*	*	*	*	*	*	*	*
8DD/	.	.	8c/	8f#/J	8D/	e-	.	.	8c/	.	8f#\J	.	8d\J	8a\J
8GG/L	.	.	4B/	4g/	4GG/	-lei-	4d\	.	4B,</	-son,	4g/	.	4g\	4b\
8BB/	.	.	.	.	.	.	.	.	.	.	.	.	.	.
8D/J	.	.	8B/	8g/	8GG/	.	8d\	.	8B/	e-	8g/	.	8g\	8b\
4G\	.	.	4B/	4g/	4GG,</	-son,	4d,<\	-son,	4B/	-lei-	4g,</	-son,	4g\	4b\
*	*	*	*	*	*	*Xij	*	*	*	*	*	*	*	*
8GG/	.	.	8b\	8dd\	8G\	e-	8c\	e-	8b\	.	8dd\	e-	8b\	8dd\
=50	=50	=50	=50	=50	=50	=50	=50	=50	=50	=50	=50	=50	=50	=50
4.GG/	.	1.ryy	8b\L	8dd\L	2.G\	-lei-	8B\L	-lei-	2.b\	.	8dd\L	-lei-	4b\	4dd\
.	.	.	8g\	8b\	.	.	8G\	.	.	.	8b\	.	.	.
.	.	.	8a\J	8cc\J	.	.	8A\J	.	.	.	8cc\J	.	8r	8r
4GG/	.	.	8b\L	8dd\L	.	.	8B\L	.	.	.	8dd\L	.	4b\	4dd\
.	.	.	8g\	8b\	.	.	8G\	.	.	.	8b\	.	.	.
8r	.	.	8cc\J	8ee\J	.	.	8c\J	.	.	.	8ee\J	.	8r	8r
4GG/	.	.	8b\L	8dd\L	2.G\	.	8B\L	.	2.b\	.	8dd\L	.	4b\	4dd\
.	.	.	8g\	8b\	.	.	8G\	.	.	.	8b\	.	.	.
8r	.	.	8a\J	8cc\J	.	.	8A\J	.	.	.	8cc\J	.	8r	8r
4GG/	.	.	8b\L	8dd\L	.	.	8B\L	.	.	.	8dd\L	.	4b\	4dd\
.	.	.	8g\	8b\	.	.	8G\	.	.	.	8b\	.	.	.
8r	.	.	8cc\J	8gg\J	.	.	8c\J	.	.	.	8gg\J	.	8r	8r
=51	=51	=51	=51	=51	=51	=51	=51	=51	=51	=51	=51	=51	=51	=51
!	!	!	!	!	!	!	!	!	!	!	!LO:LB:g=original	!	!LO:LB:g=original	!
4GG/	.	1.ryy	8b\L	8dd\L	4.G\	.	8B\L	.	4.b\	-son	8dd\L	.	4b\	4dd\
.	.	.	8g\	8b\	.	.	8G\	.	.	.	8b\	.	.	.
8r	.	.	8a\J	8cc\J	.	.	8A\J	.	.	.	8cc\J	.	8r	8r
4GG/	.	.	8b\L	4dd\	4G\	-son	4B\	.	4b\	Ky-	4dd\	-son	4b\	4dd\
.	.	.	8a\	.	.	.	.	.	.	.	.	.	.	.
8D/	.	.	8cc\J	8cc\	8D/	e-	8A\	.	8a\	-ri-	8cc\	e-	8a\	8cc\
4G\	.	.	8g/L	8b/L	4G\	-lei-	4G/	-son	8g\L	-e	8b\L	-lei-	4g\	8b\L
.	.	.	8f#/	8a/	.	.	.	.	8f#\	.	8a\	.	.	8cc\
!	!	!	!LO:SIC:v:s=8d/J	!	!	!	!	!	!LO:SIC:v:s=8d\J	!	!	!	!	!
8GG/	.	.	8e/J	8g/J	8B\	.	8B\	e-	8e\J	.	8g\J	.	8d/	8dd\J
4D/	.	.	8c/L	8a/L	4d\	.	4.d\	-lei-	4d\	e-	8a\L	.	4d/	8cc\L
.	.	.	8B/	8g/	.	.	.	.	.	.	8g\	.	.	8b\
8DD/	.	.	8A/J	8f#/J	8D/	.	.	.	8c/	-lei-	8f#\J	.	8d/	8a\J
=52	=52	=52	=52	=52	=52	=52	=52	=52	=52	=52	=52	=52	=52	=52
*	*	*	*^	*	*	*	*	*	*	*	*	*	*	*
4GG/	.	1.ryy	4B/	2.ryy	4g/	4G\	.	4d\	-son	4B,</	-son,	4g,</	-son,	4B/	4g\
8GG/	.	.	8B/	.	8g/	8G\	.	8d\	e-	8B/	e-	8g/	e-	8B/	8g\
4GG/	.	.	4B/	.	4g/	4G,<\	-son,	4d\	-lei-	4B/	-lei-	4g/	-ley-	4B/	4g\
8r	.	.	8B/	.	16a/LL	8G\	e-	8d\	.	8d\	.	16a/LL	.	8r	8r
.	.	.	.	.	16b/JJ	.	.	.	.	.	.	16b/JJ	.	.	.
!	!	!	!	!	!	!	!	!	!	!LO:LB:g=original	!	!	!	!	!
4GG/	.	.	4d/	4B\	4g/	4G\	-lei-	4d\	-son	4B/	-son	4g,</	-son,	4B/	4g\
*	*	*	*	*	*	*	*	*	*	*	*ij	*	*	*	*
8GG/	.	.	8d/	8B\	8g/	8G\	.	8d\	e-	8B/	e-	8g/	e-	8B/	8g\
4GG/	.	.	4d/	4B\	4g/	4G,<\	-son,	4d\	-lei-	4B/	-lei-	4g/	-ley-	4B/	4g\
!	!	!	!	!	!LO:TX:t=h:b	!	!	!	!	!	!	!	!	!	!
8r	.	.	8d/	8B\	16b/LL	8G\	e-	8d\	.	8d\	.	16b\LL	.	8r	8r
!	!	!	!	!	!LO:TX:t=c:b	!	!	!	!	!	!	!	!	!	!
.	.	.	.	.	16cc/JJ	.	.	.	.	.	.	16dd\JJ	.	.	.
=53	=53	=53	=53	=53	=53	=53	=53	=53	=53	=53	=53	=53	=53	=53	=53
!	!	!	!	!	!	!LO:LB:g=original	!	!	!	!	!	!	!	!	!
4GG/	.	2.ryy	4d/	4B\	4g/	4G\	-lei-	4d\	-son	4B,</	-son	4g,</	-son,	4B/	4g\
*	*	*	*	*	*	*	*	*	*	*	*Xij	*	*	*	*
8GG/	.	.	8d/	8B\	8g/	8G\	.	8d\	e-	8B/	e-	8g/	e-	8B/	8g\
4GG/	.	.	4d/	4B\	4g/	4G\	.	4d\	-lei-	4B/	-lei-	4g/	-le-	4B/	4g\
8r	.	.	8d/	8B\	16b/LL	8G\	.	8d\	.	8d\	.	16b\LL	-i-	8r	8r
.	.	.	.	.	16dd/JJ	.	.	.	.	.	.	16dd\JJ	.	.	.
*	*	*	*v	*v	*	*	*	*	*	*	*	*	*	*	*
=-	=-	=-	=||	=-	=-	=-	=-	=-	=||	=||	=	=-	=-	=-
*M4/4	*	*	*M4/4	*M4/4	*M4/4	*	*M4/4	*	*M4/4	*	*M4/4	*	*M4/4	*M4/4
*met(C.)	*	*	*met(c)	*met(c)	*met(c)	*	*met(c)	*	*met(c)	*	*met(c)	*	*met(C.)	*met(C.)
!LO:LB:g=original	!	!	!	!	!	!	!	!	!	!	!	!	!	!
!LO:TX:b:t=Adagio	!	!	!LO:TX:b:t=Adagio	!LO:TX:b:t=Adagio.	!LO:TX:a:t=Adagio	!	!	!	!	!	!	!	!LO:TX:a:t=Adagio.	!
2C#X/	5 3	2ryy	2ee\	2gg\	2C#X/	.	2r	.	2e\	-son	2gg\	-son	2g\	2cc#X\
=54	=54	=54	=54	=54	=54	=54	=54	=54	=54	=54	=54	=54	=54	=54
!	!	!	!	!	!	!	!	!	!	!	!	!	!	!LO:SIC:v:s=1cc#
1C#X	7 3	1ryy	1ee	1gg	1C#X	-son	2e\	[[lei]]	2a\	E-	2gg\	e-	2g\	1cc
.	.	.	.	.	.	.	2g\	.	4a\	-lei-	2ee\	.	2g\	.
.	.	.	.	.	.	.	.	.	4a\	.	.	.	.	.
=55	=55	=55	=55	=55	=55	=55	=55	=55	=55	=55	=55	=55	=55	=55
4Cn/	6 4	1ryy	4dd\	4ff#\	4Cn/	e-	4f#\	.	4a,<\	-son,	4dd\	-lei-	4a\	4dd\
8BB/L	.	.	4b\	4gg\	8BB/L	-lei-	4d\	.	4g\	e-	4b\	.	4g\	4b\
8GG/J	.	.	.	.	8GG/J	.	.	.	.	.	.	.	.	.
4D\	.	.	2dd\	4gg\	4D/	.	2d\	.	4a\	-lei-	4b\	-son	4d/	4a\
!	!	!	!	!LO:SIC:v:s=8aa\L	!	!	!	!	!	!	!	!	!	!
4GG/	.	.	.	8ff#\L	4GG/	.	.	.	4b\	.	8a\L	e-	4g\	4b\
!	!	!	!	!LO:SIC:v:s=8gg\J	!	!	!	!	!	!	!	!	!	!
.	.	.	.	8ee\J	.	.	.	.	.	.	8g\J	.	.	.
=56	=56	=56	=56	=56	=56	=56	=56	=56	=56	=56	=56	=56	=56	=56
!	!	!	!	!	!	!	!LO:SIC:v:s=1c:t=?	!	!	!	!	!	!	!
2D\	.	1ryy	1dd	1ff#	1D	.	1d	.	2g\	.	2a\	-ley-	1d	4a\
.	.	.	.	.	.	.	.	.	.	.	.	.	.	4dd\
2DD/	.	.	.	.	.	.	.	.	2f#\	.	2cc\	.	.	2cc\
=57	=57	=57	=57	=57	=57	=57	=57	=57	=57	=57	=57	=57	=57	=57
!	!	!	!LO:LB:g=original	!	!	!	!LO:SIC:v:s=1B;	!	!	!	!	!	!	!LO:LB:g=original
1GG;;	.	1ryy	1dd	1G 1d 1b 1gg	1GG	-son.	1c;	-son	1g	-son.	1b	-son.	1g	1b
==	==	==	==;;	==;;	==;;	==	==;<	==	==;;	==	==;;	==	==;	==
*-	*-	*-	*-	*-	*-	*-	*-	*-	*-	*-	*-	*-	*-	*-
!!!system-decoration: [(s1,s2)][(s3,s4,s5,s6)][(s7,s8,s9)]s10
!!!ENC: Berenika Jozajtis
!!!END: 2020-07-27
!!!ENC: Krzysztof Stępień
!!!END: 2022-03-03
!!!RDF**kern: > = above
!!!RDF**kern: < = below
